images/INSUR.svg

<svg height="250" viewBox="0 0 250 250" width="250" xmlns="http://www.w3.org/2000/svg"><g fill-rule="evenodd"><path d="m250 125c0 69.035156-55.964844 125-125 125s-125-55.964844-125-125 55.964844-125 125-125 125 55.964844 125 125zm0 0" fill="#fff"/><path d="m59.914062 119.191406c1.933594 3.519532 1.933594 7.808594 0 11.328125.605469 1.828125 1.820313 3.773438 3.546876 5.496094 1.730468 1.71875 3.683593 2.925781 5.519531 3.53125 4.503906-2.453125 10.265625-1.78125 14.078125 2.015625s4.488281 9.535156 2.027344 14.015625c.605468 1.828125 1.816406 3.773437 3.546874 5.496094 1.730469 1.722656 3.683594 2.929687 5.519532 3.53125 3.53125-1.925781 7.84375-1.925781 11.375 0 1.835937-.601563 3.789062-1.808594 5.519531-3.53125 1.730469-1.722657 2.941406-3.667969 3.546875-5.496094-2.460938-4.480469-1.785156-10.21875 2.027344-14.015625s9.574218-4.46875 14.078125-2.015625c1.835937-.605469 3.789062-1.8125 5.519531-3.53125 1.726562-1.722656 2.941406-3.667969 3.546875-5.496094-1.933594-3.519531-1.933594-7.808593 0-11.328125-.605469-1.828125-1.820313-3.773437-3.546875-5.496094-1.730469-1.71875-3.683594-2.925781-5.519531-3.527343-4.503907 2.449219-10.265625 1.777343-14.078125-2.019531-3.8125-3.796876-4.488282-9.53125-2.027344-14.015626-.605469-1.828124-1.816406-3.773437-3.546875-5.496093-1.730469-1.722657-3.683594-2.925781-5.519531-3.53125-3.53125 1.925781-7.84375 1.925781-11.375 0-1.835938.605469-3.789063 1.808593-5.519532 3.53125-1.730468 1.722656-2.941406 3.667969-3.546874 5.496093 2.460937 4.484376 1.785156 10.21875-2.027344 14.015626-3.8125 3.796874-9.574219 4.46875-14.078125 2.019531-1.835938.601562-3.789063 1.808593-5.519531 3.527343-1.726563 1.722657-2.941407 3.667969-3.546876 5.496094m-4.726562-4.707031c1.835938-.601563 3.789062-1.808594 5.519531-3.53125s2.941407-3.664063 3.546875-5.492187c-2.460937-4.484376-1.785156-10.222657 2.027344-14.019532s9.574219-4.46875 14.078125-2.015625c1.835937-.605469 3.789063-1.808593 5.519531-3.53125 1.726563-1.722656 2.9375-3.667969 3.542969-5.496093-2.460937-4.484376-1.785156-10.21875 2.027344-14.015626 4.632812-4.613281 12.148437-4.613281 16.78125 0 3.8125 3.796876 4.488281 9.53125 2.027343 14.015626.605469 1.828124 1.816407 3.773437 3.542969 5.496093 1.730469 1.722657 3.683594 2.925781 5.519531 3.53125 4.503907-2.453125 10.265626-1.78125 14.078126 2.015625 3.816406 3.796875 4.488281 9.535156 2.027343 14.019532.605469 1.828124 1.816407 3.769531 3.546875 5.492187 1.730469 1.722656 3.683594 2.929687 5.519532 3.53125 4.503906-2.449219 10.265624-1.777344 14.078124 2.019531 4.632813 4.613282 4.632813 12.09375 0 16.707032-3.8125 3.792968-9.574218 4.46875-14.078124 2.015624-1.835938.601563-3.789063 1.808594-5.519532 3.53125-1.730468 1.722657-2.941406 3.667969-3.546875 5.492188 2.460938 4.484375 1.789063 10.222656-2.027343 14.019531-3.8125 3.796875-9.574219 4.46875-14.078126 2.015625-1.835937.605469-3.789062 1.808594-5.519531 3.53125-1.726562 1.722656-2.9375 3.667969-3.542969 5.496094 2.460938 4.484375 1.785157 10.21875-2.027343 14.015625-4.632813 4.613281-12.148438 4.613281-16.78125 0-3.8125-3.796875-4.488281-9.53125-2.027344-14.015625-.605469-1.828125-1.816406-3.773438-3.542969-5.496094-1.730468-1.722656-3.683594-2.925781-5.519531-3.53125-4.503906 2.453125-10.265625 1.78125-14.078125-2.015625s-4.488281-9.535156-2.027344-14.019531c-.605468-1.824219-1.816406-3.769531-3.546875-5.492188-1.730469-1.722656-3.683593-2.929687-5.519531-3.53125-4.503906 2.453126-10.265625 1.777344-14.078125-2.015624-4.632813-4.613282-4.632813-12.09375 0-16.707032 3.8125-3.796875 9.574219-4.46875 14.078125-2.019531" fill="#75b943"/><path d="m119.410156 110.050781c-1.835937.601563-3.789062 1.808594-5.519531 3.53125-1.730469 1.722657-2.941406 3.667969-3.546875 5.492188 1.933594 3.519531 1.933594 7.8125 0 11.328125.605469 1.828125 1.816406 3.773437 3.546875 5.496094 1.96875 1.960937 4.230469 3.253906 6.273437 3.746093 2.046876.496094.578126 3.351563-.660156 4.585938-1.238281 1.234375-4.109375 2.695312-4.605468.660156-.496094-2.039063-1.792969-4.289063-3.765626-6.25-1.726562-1.722656-3.679687-2.925781-5.515624-3.53125-4.503907 2.453125-10.265626 1.78125-14.078126-2.015625-4.636718-4.613281-4.636718-12.09375 0-16.707031 3.8125-3.796875 9.574219-4.46875 14.078126-2.015625 1.835937-.605469 3.789062-1.8125 5.515624-3.53125 1.730469-1.722656 2.941407-3.667969 3.546876-5.496094-2.460938-4.484375-1.785157-10.222656 2.027343-14.015625 3.8125-3.796875 9.574219-4.46875 14.078125-2.019531 1.835938-.601563 3.789063-1.808594 5.519532-3.53125 1.730468-1.722656 2.941406-3.667969 3.546874-5.492188-2.460937-4.484375-1.785156-10.222656 2.027344-14.019531 4.632813-4.613281 12.144532-4.613281 16.777344 0 3.816406 3.796875 4.488281 9.535156 2.027344 14.019531.605468 1.824219 1.816406 3.769532 3.546875 5.492188s3.683593 2.929687 5.519531 3.53125c4.503906-2.449219 10.265625-1.777344 14.078125 2.019531 3.8125 3.792969 4.488281 9.53125 2.027344 14.015625.605469 1.828125 1.816406 3.773438 3.542969 5.496094 1.730468 1.71875 3.683593 2.925781 5.519531 3.53125 4.503906-2.453125 10.265625-1.78125 14.078125 2.015625 4.636718 4.613281 4.636718 12.09375 0 16.707031-3.8125 3.796875-9.574219 4.46875-14.078125 2.015625-1.835938.605469-3.789063 1.808594-5.519531 3.53125-1.726563 1.722656-2.9375 3.667969-3.542969 5.496094 2.460937 4.484375 1.785156 10.21875-2.027344 14.015625s-9.574219 4.46875-14.078125 2.019531c-1.835938.601563-3.789062 1.808594-5.519531 3.53125-1.730469 1.71875-2.941407 3.664063-3.546875 5.492187 2.460937 4.484376 1.789062 10.222657-2.027344 14.019532-4.632812 4.613281-12.144531 4.613281-16.777344 0-3.8125-3.796875-4.488281-9.535156-2.027344-14.019532-.605468-1.828124-1.816406-3.773437-3.546874-5.492187-1.96875-1.960937-4.230469-3.253906-6.277344-3.75-2.042969-.492187-.574219-3.351563.664062-4.585937 1.238282-1.230469 4.109375-2.691407 4.605469-.65625.496094 2.035156 1.792969 4.285156 3.761719 6.246093 1.730468 1.722657 3.683594 2.929688 5.519531 3.53125 3.535156-1.921875 7.84375-1.921875 11.378906 0 1.835938-.601562 3.789063-1.808593 5.519531-3.53125 1.726563-1.71875 2.941407-3.664062 3.546876-5.492187-2.464844-4.484375-1.789063-10.222656 2.023437-14.019532 3.8125-3.796874 9.574219-4.46875 14.078125-2.015624 1.835938-.601563 3.789062-1.808594 5.519531-3.53125 1.730469-1.722657 2.941407-3.667969 3.546875-5.496094-1.933594-3.515625-1.933594-7.808594 0-11.328125-.605468-1.824219-1.816406-3.769531-3.546875-5.492188-1.730469-1.722656-3.683593-2.929687-5.519531-3.53125-4.503906 2.449219-10.265625 1.777344-14.078125-2.019531-3.8125-3.792969-4.488281-9.53125-2.023437-14.015625-.605469-1.828125-1.820313-3.773437-3.546876-5.496094-1.730468-1.71875-3.683593-2.925781-5.519531-3.527343-3.535156 1.921874-7.84375 1.921874-11.378906 0-1.835937.601562-3.789063 1.808593-5.519531 3.527343-1.726563 1.722657-2.9375 3.667969-3.546875 5.496094 2.464843 4.484375 1.789062 10.222656-2.023438 14.015625-3.8125 3.796875-9.574219 4.46875-14.078125 2.019531" fill="#008845"/><path d="m124.972656 161.675781c6.550782 0 11.867188-5.289062 11.867188-11.816406 0-6.523437-5.316406-11.8125-11.867188-11.8125-6.554687 0-11.867187 5.289063-11.867187 11.8125 0 6.527344 5.3125 11.816406 11.867187 11.816406" fill="#75b943"/></g></svg>

<?xml version="1.0" encoding="UTF-8"?>
<svg xmlns="http://www.w3.org/2000/svg" xmlns:xlink="http://www.w3.org/1999/xlink" width="250px" height="250px" viewBox="0 0 250 250" version="1.1">
<g id="surface1">
<path style=" stroke:none;fill-rule:evenodd;fill:rgb(100%,100%,100%);fill-opacity:1;" d="M 250 125 C 250 194.035156 194.035156 250 125 250 C 55.964844 250 0 194.035156 0 125 C 0 55.964844 55.964844 0 125 0 C 194.035156 0 250 55.964844 250 125 Z M 250 125 "/>
<path style=" stroke:none;fill-rule:evenodd;fill:rgb(45.882353%,72.549021%,26.274511%);fill-opacity:1;" d="M 59.914062 119.191406 C 61.847656 122.710938 61.847656 127 59.914062 130.519531 C 60.519531 132.347656 61.734375 134.292969 63.460938 136.015625 C 65.191406 137.734375 67.144531 138.941406 68.980469 139.546875 C 73.484375 137.09375 79.246094 137.765625 83.058594 141.5625 C 86.871094 145.359375 87.546875 151.097656 85.085938 155.578125 C 85.691406 157.40625 86.902344 159.351562 88.632812 161.074219 C 90.363281 162.796875 92.316406 164.003906 94.152344 164.605469 C 97.683594 162.679688 101.996094 162.679688 105.527344 164.605469 C 107.363281 164.003906 109.316406 162.796875 111.046875 161.074219 C 112.777344 159.351562 113.988281 157.40625 114.59375 155.578125 C 112.132812 151.097656 112.808594 145.359375 116.621094 141.5625 C 120.433594 137.765625 126.195312 137.09375 130.699219 139.546875 C 132.535156 138.941406 134.488281 137.734375 136.21875 136.015625 C 137.945312 134.292969 139.160156 132.347656 139.765625 130.519531 C 137.832031 127 137.832031 122.710938 139.765625 119.191406 C 139.160156 117.363281 137.945312 115.417969 136.21875 113.695312 C 134.488281 111.976562 132.535156 110.769531 130.699219 110.167969 C 126.195312 112.617188 120.433594 111.945312 116.621094 108.148438 C 112.808594 104.351562 112.132812 98.617188 114.59375 94.132812 C 113.988281 92.304688 112.777344 90.359375 111.046875 88.636719 C 109.316406 86.914062 107.363281 85.710938 105.527344 85.105469 C 101.996094 87.03125 97.683594 87.03125 94.152344 85.105469 C 92.316406 85.710938 90.363281 86.914062 88.632812 88.636719 C 86.902344 90.359375 85.691406 92.304688 85.085938 94.132812 C 87.546875 98.617188 86.871094 104.351562 83.058594 108.148438 C 79.246094 111.945312 73.484375 112.617188 68.980469 110.167969 C 67.144531 110.769531 65.191406 111.976562 63.460938 113.695312 C 61.734375 115.417969 60.519531 117.363281 59.914062 119.191406 M 55.1875 114.484375 C 57.023438 113.882812 58.976562 112.675781 60.707031 110.953125 C 62.4375 109.230469 63.648438 107.289062 64.253906 105.460938 C 61.792969 100.976562 62.46875 95.238281 66.28125 91.441406 C 70.09375 87.644531 75.855469 86.972656 80.359375 89.425781 C 82.195312 88.820312 84.148438 87.617188 85.878906 85.894531 C 87.605469 84.171875 88.816406 82.226562 89.421875 80.398438 C 86.960938 75.914062 87.636719 70.179688 91.449219 66.382812 C 96.082031 61.769531 103.597656 61.769531 108.230469 66.382812 C 112.042969 70.179688 112.71875 75.914062 110.257812 80.398438 C 110.863281 82.226562 112.074219 84.171875 113.800781 85.894531 C 115.53125 87.617188 117.484375 88.820312 119.320312 89.425781 C 123.824219 86.972656 129.585938 87.644531 133.398438 91.441406 C 137.214844 95.238281 137.886719 100.976562 135.425781 105.460938 C 136.03125 107.289062 137.242188 109.230469 138.972656 110.953125 C 140.703125 112.675781 142.65625 113.882812 144.492188 114.484375 C 148.996094 112.035156 154.757812 112.707031 158.570312 116.503906 C 163.203125 121.117188 163.203125 128.597656 158.570312 133.210938 C 154.757812 137.003906 148.996094 137.679688 144.492188 135.226562 C 142.65625 135.828125 140.703125 137.035156 138.972656 138.757812 C 137.242188 140.480469 136.03125 142.425781 135.425781 144.25 C 137.886719 148.734375 137.214844 154.472656 133.398438 158.269531 C 129.585938 162.066406 123.824219 162.738281 119.320312 160.285156 C 117.484375 160.890625 115.53125 162.09375 113.800781 163.816406 C 112.074219 165.539062 110.863281 167.484375 110.257812 169.3125 C 112.71875 173.796875 112.042969 179.53125 108.230469 183.328125 C 103.597656 187.941406 96.082031 187.941406 91.449219 183.328125 C 87.636719 179.53125 86.960938 173.796875 89.421875 169.3125 C 88.816406 167.484375 87.605469 165.539062 85.878906 163.816406 C 84.148438 162.09375 82.195312 160.890625 80.359375 160.285156 C 75.855469 162.738281 70.09375 162.066406 66.28125 158.269531 C 62.46875 154.472656 61.792969 148.734375 64.253906 144.25 C 63.648438 142.425781 62.4375 140.480469 60.707031 138.757812 C 58.976562 137.035156 57.023438 135.828125 55.1875 135.226562 C 50.683594 137.679688 44.921875 137.003906 41.109375 133.210938 C 36.476562 128.597656 36.476562 121.117188 41.109375 116.503906 C 44.921875 112.707031 50.683594 112.035156 55.1875 114.484375 "/>
<path style=" stroke:none;fill-rule:evenodd;fill:rgb(0%,53.333336%,27.058825%);fill-opacity:1;" d="M 119.410156 110.050781 C 117.574219 110.652344 115.621094 111.859375 113.890625 113.582031 C 112.160156 115.304688 110.949219 117.25 110.34375 119.074219 C 112.277344 122.59375 112.277344 126.886719 110.34375 130.402344 C 110.949219 132.230469 112.160156 134.175781 113.890625 135.898438 C 115.859375 137.859375 118.121094 139.152344 120.164062 139.644531 C 122.210938 140.140625 120.742188 142.996094 119.503906 144.230469 C 118.265625 145.464844 115.394531 146.925781 114.898438 144.890625 C 114.402344 142.851562 113.105469 140.601562 111.132812 138.640625 C 109.40625 136.917969 107.453125 135.714844 105.617188 135.109375 C 101.113281 137.5625 95.351562 136.890625 91.539062 133.09375 C 86.902344 128.480469 86.902344 121 91.539062 116.386719 C 95.351562 112.589844 101.113281 111.917969 105.617188 114.371094 C 107.453125 113.765625 109.40625 112.558594 111.132812 110.839844 C 112.863281 109.117188 114.074219 107.171875 114.679688 105.34375 C 112.21875 100.859375 112.894531 95.121094 116.707031 91.328125 C 120.519531 87.53125 126.28125 86.859375 130.785156 89.308594 C 132.621094 88.707031 134.574219 87.5 136.304688 85.777344 C 138.035156 84.054688 139.246094 82.109375 139.851562 80.285156 C 137.390625 75.800781 138.066406 70.0625 141.878906 66.265625 C 146.511719 61.652344 154.023438 61.652344 158.65625 66.265625 C 162.472656 70.0625 163.144531 75.800781 160.683594 80.285156 C 161.289062 82.109375 162.5 84.054688 164.230469 85.777344 C 165.960938 87.5 167.914062 88.707031 169.75 89.308594 C 174.253906 86.859375 180.015625 87.53125 183.828125 91.328125 C 187.640625 95.121094 188.316406 100.859375 185.855469 105.34375 C 186.460938 107.171875 187.671875 109.117188 189.398438 110.839844 C 191.128906 112.558594 193.082031 113.765625 194.917969 114.371094 C 199.421875 111.917969 205.183594 112.589844 208.996094 116.386719 C 213.632812 121 213.632812 128.480469 208.996094 133.09375 C 205.183594 136.890625 199.421875 137.5625 194.917969 135.109375 C 193.082031 135.714844 191.128906 136.917969 189.398438 138.640625 C 187.671875 140.363281 186.460938 142.308594 185.855469 144.136719 C 188.316406 148.621094 187.640625 154.355469 183.828125 158.152344 C 180.015625 161.949219 174.253906 162.621094 169.75 160.171875 C 167.914062 160.773438 165.960938 161.980469 164.230469 163.703125 C 162.5 165.421875 161.289062 167.367188 160.683594 169.195312 C 163.144531 173.679688 162.472656 179.417969 158.65625 183.214844 C 154.023438 187.828125 146.511719 187.828125 141.878906 183.214844 C 138.066406 179.417969 137.390625 173.679688 139.851562 169.195312 C 139.246094 167.367188 138.035156 165.421875 136.304688 163.703125 C 134.335938 161.742188 132.074219 160.449219 130.027344 159.953125 C 127.984375 159.460938 129.453125 156.601562 130.691406 155.367188 C 131.929688 154.136719 134.800781 152.675781 135.296875 154.710938 C 135.792969 156.746094 137.089844 158.996094 139.058594 160.957031 C 140.789062 162.679688 142.742188 163.886719 144.578125 164.488281 C 148.113281 162.566406 152.421875 162.566406 155.957031 164.488281 C 157.792969 163.886719 159.746094 162.679688 161.476562 160.957031 C 163.203125 159.238281 164.417969 157.292969 165.023438 155.464844 C 162.558594 150.980469 163.234375 145.242188 167.046875 141.445312 C 170.859375 137.648438 176.621094 136.976562 181.125 139.429688 C 182.960938 138.828125 184.914062 137.621094 186.644531 135.898438 C 188.375 134.175781 189.585938 132.230469 190.191406 130.402344 C 188.257812 126.886719 188.257812 122.59375 190.191406 119.074219 C 189.585938 117.25 188.375 115.304688 186.644531 113.582031 C 184.914062 111.859375 182.960938 110.652344 181.125 110.050781 C 176.621094 112.5 170.859375 111.828125 167.046875 108.03125 C 163.234375 104.238281 162.558594 98.5 165.023438 94.015625 C 164.417969 92.1875 163.203125 90.242188 161.476562 88.519531 C 159.746094 86.800781 157.792969 85.59375 155.957031 84.992188 C 152.421875 86.914062 148.113281 86.914062 144.578125 84.992188 C 142.742188 85.59375 140.789062 86.800781 139.058594 88.519531 C 137.332031 90.242188 136.121094 92.1875 135.511719 94.015625 C 137.976562 98.5 137.300781 104.238281 133.488281 108.03125 C 129.675781 111.828125 123.914062 112.5 119.410156 110.050781 "/>
<path style=" stroke:none;fill-rule:evenodd;fill:rgb(45.882353%,72.549021%,26.274511%);fill-opacity:1;" d="M 124.972656 161.675781 C 131.523438 161.675781 136.839844 156.386719 136.839844 149.859375 C 136.839844 143.335938 131.523438 138.046875 124.972656 138.046875 C 118.417969 138.046875 113.105469 143.335938 113.105469 149.859375 C 113.105469 156.386719 118.417969 161.675781 124.972656 161.675781 "/>
</g>
</svg>
